X: 21119
T: Karen's
R: waltz
M: 3/4
K: Dmajor
|:B,|A,B,D F2A|BdB AFD|A,B,D F2A|BAF E2D/B,/|A,B,D F2A|BdB AFA|BcB AFD|EDE D2:|
|:d/e/|fed fed|fed Bde|fed fga|agf e2d/e/|fed fed|fga bag|fed BdB|AFE D2:|

